svgs/thin/file-certificate.svg

<svg xmlns="http://www.w3.org/2000/svg" viewBox="0 0 512 512"><!--! Font Awesome Pro 6.3.0 by @fontawesome - https://fontawesome.com License - https://fontawesome.com/license (Commercial License) Copyright 2023 Fonticons, Inc. --><path d="M230.9 360.3c3.219-12.25 3.219-12.25 12.02-21.16l2.61-2.656c9.001-9 12.53-22.31 9.235-34.78L254.2 299.5c-1.453-5.438-2.391-8.719-2.75-11.47c.3594-2.75 1.297-6.031 2.75-11.47l.6094-2.281c3.297-12.47-.2344-25.78-9.188-34.72L243.2 237.1C234.2 227.9 234.2 227.9 230.1 215.7L229.1 211.9C226.8 199.6 217.2 189.9 205 186.5l-3.672-1C189.3 182.2 189.3 182.2 180.4 173.2L177.9 170.6C168.1 161.5 155.8 157.9 143.6 161.2L140.1 162.2c-12.13 3.312-12.11 3.312-24.14 0L112.4 161.2C100.2 157.9 87.05 161.5 78.16 170.6l-2.547 2.562C66.63 182.2 66.63 182.2 54.64 185.5l-3.625 1C38.78 189.9 29.22 199.6 26.06 211.9L25.08 215.7C21.86 227.9 21.86 227.9 13.06 236.8L10.45 239.5c-9.001 9-12.53 22.31-9.235 34.78L1.824 276.5c1.594 5.938 2.547 9.312 2.828 10.72C4.371 290.2 3.418 293.5 1.824 299.5L1.215 301.7c-3.297 12.47 .2344 25.78 9.188 34.72l2.391 2.438c9.032 9.156 9.032 9.156 12.25 21.34l1 3.812c3.172 12.31 12.74 22.06 24.96 25.41l3.672 1c4.485 1.234 7.104 2.07 9.329 3.016v110.5c0 2.844 1.516 5.5 3.985 6.906c1.234 .7187 2.625 1.094 4.016 1.094c1.375 0 2.735-.3438 3.969-1.062l52.04-29.72l52 29.72c2.469 1.469 5.485 1.375 7.985-.0313c2.469-1.406 3.985-4.062 3.985-6.906l.0313-110.5c2.233-.9687 4.852-1.809 9.36-3.055l3.625-1c12.24-3.344 21.8-13.09 24.96-25.34L230.9 360.3zM175.1 490.2L131.1 465.1c-2.469-1.438-5.469-1.438-7.938 0l-44.03 25.16v-83.38c8.842 7.887 21.01 11.07 32.39 7.941l3.547-.9687c12.13-3.312 12.11-3.312 24.14 0l3.532 .9687c2.985 .8125 6.032 1.219 9.063 1.219c8.587 0 16.8-3.5 23.33-9.344L175.1 490.2zM215.5 356.3l-1 3.75c-1.75 6.781-6.985 12.12-13.72 13.97l-3.61 1c-15.38 4.25-16.69 5-28.11 16.56l-2.547 2.594c-4.891 4.938-11.97 6.969-18.69 5.156l-3.469-.9375c-7.751-2.156-12-3.219-16.27-3.219c-4.266 0-8.532 1.062-16.31 3.188l-3.5 .9687c-6.672 1.812-13.81-.1875-18.7-5.188l-2.5-2.531c-11.34-11.59-12.66-12.34-28.14-16.59l-3.657-1c-6.704-1.844-11.94-7.188-13.7-14.03l-1.016-3.812c-4.094-15.56-4.86-16.88-16.33-28.5L21.76 325.2C16.78 320.2 14.84 312.8 16.68 305.9l.5938-2.25C19.22 296.4 20.25 292.3 20.59 287.2C20.25 283.7 19.22 279.6 17.28 272.4L16.68 270.1C14.84 263.2 16.78 255.7 21.81 250.7l2.641-2.656c11.25-11.41 12-12.72 16.09-28.38l1-3.75c1.75-6.781 6.985-12.12 13.72-13.97l3.61-1c15.38-4.25 16.69-5 28.11-16.56l2.547-2.594c4.891-4.938 11.94-6.938 18.69-5.156l3.469 .9375c15.5 4.312 17.02 4.281 32.58 .0313l3.5-.9687C154.5 174.9 161.6 176.9 166.5 181.8l2.5 2.531c11.34 11.59 12.66 12.34 28.14 16.59l3.657 1c6.704 1.844 11.94 7.188 13.7 14.03L215.5 219.8c4.094 15.56 4.86 16.88 16.33 28.5L234.2 250.8c4.985 4.969 6.922 12.41 5.079 19.34L238.7 272.4C236.8 279.6 235.8 283.7 235.4 287.2L235.4 287.1l.0625 .75C235.8 292.3 236.8 296.4 238.7 303.6l.5938 2.25c1.844 6.938-.0938 14.38-5.125 19.41l-2.641 2.656C220.3 339.3 219.6 340.7 215.5 356.3zM502.6 150.6l-141.3-141.2C355.4 3.371 347.2-.0003 338.7-.0003L191.1-.0001c-35.35 0-64 28.65-64 64L127.1 119.1c0 4.418 3.582 8 8.001 8s8.001-3.582 8.001-8V63.1c0-26.51 21.49-48 48-48h144v119.1c0 22.09 17.91 40 40 40h120v272c0 26.51-21.49 48-48 48H232c-4.418 0-8.001 3.582-8.001 8s3.582 8 8.001 8l215.1 .0002c35.35 0 64-28.66 64-64V173.3C512 164.8 508.6 156.6 502.6 150.6zM375.1 159.1c-13.22 0-24-10.77-24-24V22.63l137.4 137.4H375.1z"/></svg>

<svg xmlns="http://www.w3.org/2000/svg" viewBox="0 0 512 512"><!-- Font Awesome Pro 6.0.0-alpha2 by @fontawesome - https://fontawesome.com License - https://fontawesome.com/license (Commercial License) --><path d="M230.935 360.344C234.154 348.094 234.154 348.094 242.952 339.187L245.561 336.531C254.562 327.531 258.094 314.219 254.797 301.75L254.187 299.469C252.734 294.031 251.796 290.75 251.437 288C251.796 285.25 252.734 281.969 254.187 276.531L254.797 274.25C258.094 261.781 254.562 248.468 245.608 239.531L243.218 237.093C234.186 227.937 234.186 227.937 230.967 215.75L229.967 211.937C226.794 199.625 217.231 189.875 205.012 186.531L201.339 185.531C189.276 182.218 189.276 182.218 180.416 173.187L177.884 170.625C168.962 161.531 155.789 157.937 143.616 161.218L140.069 162.187C127.943 165.5 127.959 165.5 115.927 162.187L112.395 161.218C100.238 157.937 87.049 161.531 78.158 170.593L75.611 173.156C66.626 182.218 66.626 182.218 54.641 185.531L51.015 186.531C38.78 189.875 29.217 199.625 26.06 211.875L25.076 215.656C21.857 227.906 21.857 227.906 13.059 236.812L10.45 239.468C1.449 248.468 -2.083 261.781 1.215 274.25L1.824 276.531C3.418 282.469 4.371 285.844 4.652 287.25C4.371 290.156 3.418 293.531 1.824 299.469L1.215 301.75C-2.083 314.219 1.449 327.531 10.403 336.469L12.794 338.906C21.826 348.062 21.826 348.062 25.045 360.25L26.045 364.062C29.217 376.375 38.78 386.125 51 389.469L54.672 390.469C59.157 391.703 61.776 392.539 64.001 393.484V504C64.001 506.844 65.516 509.5 67.985 510.906C69.22 511.625 70.611 512 72.001 512C73.376 512 74.736 511.656 75.97 510.937L128.006 481.219L180.01 510.937C182.479 512.406 185.494 512.312 187.995 510.906C190.464 509.5 191.979 506.844 191.979 504L192.011 393.523C194.243 392.554 196.862 391.715 201.371 390.469L204.996 389.469C217.231 386.125 226.794 376.375 229.951 364.125L230.935 360.344ZM175.978 490.219L131.975 465.062C129.506 463.625 126.505 463.625 124.037 465.062L80.002 490.219V406.84C88.844 414.726 101.007 417.914 112.395 414.781L115.942 413.812C128.068 410.5 128.052 410.5 140.085 413.812L143.616 414.781C146.601 415.594 149.648 416 152.679 416C161.266 416 169.481 412.5 176.005 406.656L175.978 490.219ZM215.465 356.312L214.465 360.062C212.715 366.844 207.48 372.187 200.746 374.031L197.136 375.031C181.76 379.281 180.447 380.031 169.024 391.594L166.477 394.187C161.586 399.125 154.508 401.156 147.788 399.344L144.319 398.406C136.569 396.25 132.318 395.187 128.052 395.187C123.786 395.187 119.521 396.25 111.739 398.375L108.238 399.344C101.566 401.156 94.425 399.156 89.534 394.156L87.034 391.625C75.689 380.031 74.376 379.281 58.891 375.031L55.234 374.031C48.531 372.187 43.296 366.844 41.53 360L40.514 356.187C36.42 340.625 35.655 339.312 24.185 327.687L21.763 325.219C16.778 320.25 14.841 312.812 16.684 305.875L17.278 303.625C19.216 296.406 20.247 292.312 20.591 287.25C20.247 283.687 19.216 279.594 17.278 272.375L16.684 270.125C14.841 263.187 16.778 255.75 21.81 250.718L24.451 248.062C35.702 236.656 36.452 235.343 40.546 219.687L41.546 215.937C43.296 209.156 48.531 203.812 55.266 201.968L58.875 200.968C74.251 196.718 75.564 195.968 86.987 184.406L89.534 181.812C94.425 176.875 101.472 174.875 108.223 176.656L111.692 177.593C127.193 181.906 128.709 181.875 144.272 177.625L147.773 176.656C154.476 174.875 161.586 176.875 166.477 181.843L168.977 184.375C180.322 195.968 181.635 196.718 197.12 200.968L200.777 201.968C207.48 203.812 212.715 209.156 214.481 216L215.497 219.812C219.591 235.375 220.356 236.687 231.826 248.312L234.248 250.781C239.233 255.75 241.171 263.187 239.327 270.125L238.733 272.375C236.795 279.594 235.764 283.687 235.42 287.25L235.358 288L235.42 288.75C235.764 292.312 236.795 296.406 238.733 303.625L239.327 305.875C241.171 312.812 239.233 320.25 234.201 325.281L231.56 327.937C220.31 339.344 219.56 340.656 215.465 356.312ZM502.624 150.621L361.359 9.375C355.355 3.371 347.214 0 338.723 0H191.975C156.627 0 127.97 28.652 127.97 64V120C127.97 124.418 131.553 128 135.971 128S143.972 124.418 143.972 120V64C143.972 37.492 165.464 16 191.975 16H335.986V136C335.986 158.093 353.896 176 375.99 176H495.999V448C495.999 474.508 474.507 496 447.995 496H232.014C227.595 496 224.013 499.582 224.013 504S227.595 512 232.014 512H447.995C483.344 512 512 483.343 512 448V173.254C512 164.765 508.627 156.625 502.624 150.621ZM375.99 160C362.77 160 351.988 149.234 351.988 136V22.629L489.373 160H375.99Z"/></svg>
